X:0729
T:Welsh Dance.
M:C
L:1/8
Q:1/2=96
P:ABCA % Aird uses a da capo
I: :| || || DC
Z:Jack Campin * www.campin.me.uk * 2009
K:G
P:A
g>fg>a  f>ef>d|e>de>c d2 B2|c>Bc>d  e>fg>B|c>Ad>c (G/G/G G2):|
P:B
b>ab>c' a>ga>f|gf`ga  f2 f2|g>fg>e ^d>BB>f|g>ee^d  e2    e2 ||
P:C
E>FG>A  B>cd>e|c>BA>d B>AG2|B>AB>c  d>ef>g|ab`eg   fe    d2 ||

